icons/modern/cloud.svg

<svg width="32" height="32" viewBox="0 0 32 32" fill="none" xmlns="http://www.w3.org/2000/svg">
<path d="M12.26 17.6443C14.4912 17.6443 16.3 15.8356 16.3 13.6043C16.3 11.3731 14.4912 9.56433 12.26 9.56433C10.0287 9.56433 8.21997 11.3731 8.21997 13.6043C8.21997 15.8356 10.0287 17.6443 12.26 17.6443Z" fill="url(#paint0_radial_18_14985)"/>
<path d="M12.26 17.6443C14.4912 17.6443 16.3 15.8356 16.3 13.6043C16.3 11.3731 14.4912 9.56433 12.26 9.56433C10.0287 9.56433 8.21997 11.3731 8.21997 13.6043C8.21997 15.8356 10.0287 17.6443 12.26 17.6443Z" fill="url(#paint1_radial_18_14985)"/>
<g filter="url(#filter0_i_18_14985)">
<path d="M27.2902 9.55941C23.7332 6.09254 18.0419 6.15266 14.575 9.70971C13.6492 10.6538 12.9834 11.7488 12.5545 12.918C12.4956 13.0784 12.2986 13.1412 12.156 13.0469C11.8443 12.8406 11.5121 12.6605 11.1682 12.5153C10.3466 12.1345 9.43477 11.9241 8.47286 11.9241C4.89575 11.9241 2 14.8198 2 18.3969C2 19.9199 2.53105 21.3227 3.4128 22.4349C4.60517 23.998 6.4789 25 8.5931 25C11.1382 25 18.4527 25 21.3084 25C24.134 25 26.6289 23.6072 28.152 21.473C30.8774 17.9059 30.5868 12.7758 27.2902 9.55941Z" fill="#D5D4DA"/>
<path d="M27.2902 9.55941C23.7332 6.09254 18.0419 6.15266 14.575 9.70971C13.6492 10.6538 12.9834 11.7488 12.5545 12.918C12.4956 13.0784 12.2986 13.1412 12.156 13.0469C11.8443 12.8406 11.5121 12.6605 11.1682 12.5153C10.3466 12.1345 9.43477 11.9241 8.47286 11.9241C4.89575 11.9241 2 14.8198 2 18.3969C2 19.9199 2.53105 21.3227 3.4128 22.4349C4.60517 23.998 6.4789 25 8.5931 25C11.1382 25 18.4527 25 21.3084 25C24.134 25 26.6289 23.6072 28.152 21.473C30.8774 17.9059 30.5868 12.7758 27.2902 9.55941Z" fill="url(#paint2_linear_18_14985)"/>
</g>
<path d="M27.2902 9.55941C23.7332 6.09254 18.0419 6.15266 14.575 9.70971C13.6492 10.6538 12.9834 11.7488 12.5545 12.918C12.4956 13.0784 12.2986 13.1412 12.156 13.0469C11.8443 12.8406 11.5121 12.6605 11.1682 12.5153C10.3466 12.1345 9.43477 11.9241 8.47286 11.9241C4.89575 11.9241 2 14.8198 2 18.3969C2 19.9199 2.53105 21.3227 3.4128 22.4349C4.60517 23.998 6.4789 25 8.5931 25C11.1382 25 18.4527 25 21.3084 25C24.134 25 26.6289 23.6072 28.152 21.473C30.8774 17.9059 30.5868 12.7758 27.2902 9.55941Z" fill="url(#paint3_radial_18_14985)"/>
<path d="M27.2902 9.55941C23.7332 6.09254 18.0419 6.15266 14.575 9.70971C13.6492 10.6538 12.9834 11.7488 12.5545 12.918C12.4956 13.0784 12.2986 13.1412 12.156 13.0469C11.8443 12.8406 11.5121 12.6605 11.1682 12.5153C10.3466 12.1345 9.43477 11.9241 8.47286 11.9241C4.89575 11.9241 2 14.8198 2 18.3969C2 19.9199 2.53105 21.3227 3.4128 22.4349C4.60517 23.998 6.4789 25 8.5931 25C11.1382 25 18.4527 25 21.3084 25C24.134 25 26.6289 23.6072 28.152 21.473C30.8774 17.9059 30.5868 12.7758 27.2902 9.55941Z" fill="url(#paint4_radial_18_14985)"/>
<path d="M27.2902 9.55941C23.7332 6.09254 18.0419 6.15266 14.575 9.70971C13.6492 10.6538 12.9834 11.7488 12.5545 12.918C12.4956 13.0784 12.2986 13.1412 12.156 13.0469C11.8443 12.8406 11.5121 12.6605 11.1682 12.5153C10.3466 12.1345 9.43477 11.9241 8.47286 11.9241C4.89575 11.9241 2 14.8198 2 18.3969C2 19.9199 2.53105 21.3227 3.4128 22.4349C4.60517 23.998 6.4789 25 8.5931 25C11.1382 25 18.4527 25 21.3084 25C24.134 25 26.6289 23.6072 28.152 21.473C30.8774 17.9059 30.5868 12.7758 27.2902 9.55941Z" fill="url(#paint5_radial_18_14985)"/>
<path d="M27.2902 9.55941C23.7332 6.09254 18.0419 6.15266 14.575 9.70971C13.6492 10.6538 12.9834 11.7488 12.5545 12.918C12.4956 13.0784 12.2986 13.1412 12.156 13.0469C11.8443 12.8406 11.5121 12.6605 11.1682 12.5153C10.3466 12.1345 9.43477 11.9241 8.47286 11.9241C4.89575 11.9241 2 14.8198 2 18.3969C2 19.9199 2.53105 21.3227 3.4128 22.4349C4.60517 23.998 6.4789 25 8.5931 25C11.1382 25 18.4527 25 21.3084 25C24.134 25 26.6289 23.6072 28.152 21.473C30.8774 17.9059 30.5868 12.7758 27.2902 9.55941Z" fill="url(#paint6_radial_18_14985)"/>
<defs>
<filter id="filter0_i_18_14985" x="2" y="6" width="28" height="19" filterUnits="userSpaceOnUse" color-interpolation-filters="sRGB">
<feFlood flood-opacity="0" result="BackgroundImageFix"/>
<feBlend mode="normal" in="SourceGraphic" in2="BackgroundImageFix" result="shape"/>
<feColorMatrix in="SourceAlpha" type="matrix" values="0 0 0 0 0 0 0 0 0 0 0 0 0 0 0 0 0 0 127 0" result="hardAlpha"/>
<feOffset dy="-1"/>
<feGaussianBlur stdDeviation="1"/>
<feComposite in2="hardAlpha" operator="arithmetic" k2="-1" k3="1"/>
<feColorMatrix type="matrix" values="0 0 0 0 0.815686 0 0 0 0 0.784314 0 0 0 0 0.956863 0 0 0 1 0"/>
<feBlend mode="normal" in2="shape" result="effect1_innerShadow_18_14985"/>
</filter>
<radialGradient id="paint0_radial_18_14985" cx="0" cy="0" r="1" gradientUnits="userSpaceOnUse" gradientTransform="translate(13.7165 12.1054) rotate(-172.463) scale(5.54446)">
<stop offset="0.308752" stop-color="#E8E8E9"/>
<stop offset="1" stop-color="#D2D2D2"/>
</radialGradient>
<radialGradient id="paint1_radial_18_14985" cx="0" cy="0" r="1" gradientUnits="userSpaceOnUse" gradientTransform="translate(12.6917 13.2625) rotate(-141.242) scale(3.0099 2.75776)">
<stop stop-color="#CDCDCE"/>
<stop offset="1" stop-color="#CDCDCE" stop-opacity="0"/>
</radialGradient>
<linearGradient id="paint2_linear_18_14985" x1="18.8604" y1="24.0321" x2="18.8604" y2="16.5192" gradientUnits="userSpaceOnUse">
<stop stop-color="#DED7FA"/>
<stop offset="1" stop-color="#DED7FA" stop-opacity="0"/>
</linearGradient>
<radialGradient id="paint3_radial_18_14985" cx="0" cy="0" r="1" gradientUnits="userSpaceOnUse" gradientTransform="translate(26.3733 13.0518) rotate(136.5) scale(11.1541 11.965)">
<stop offset="0.178875" stop-color="#FCFBFE"/>
<stop offset="1" stop-color="#FCFBFE" stop-opacity="0"/>
</radialGradient>
<radialGradient id="paint4_radial_18_14985" cx="0" cy="0" r="1" gradientUnits="userSpaceOnUse" gradientTransform="translate(8.65868 17.3286) rotate(144.444) scale(6.84295 7.17037)">
<stop stop-color="#FCFBFE"/>
<stop offset="1" stop-color="#FCFBFE" stop-opacity="0"/>
</radialGradient>
<radialGradient id="paint5_radial_18_14985" cx="0" cy="0" r="1" gradientUnits="userSpaceOnUse" gradientTransform="translate(25.2134 15.4665) rotate(166.654) scale(23.8577 18.7887)">
<stop offset="0.815422" stop-color="#CECCD7" stop-opacity="0"/>
<stop offset="1" stop-color="#CECCD7"/>
</radialGradient>
<radialGradient id="paint6_radial_18_14985" cx="0" cy="0" r="1" gradientUnits="userSpaceOnUse" gradientTransform="translate(5.64434 26.0182) rotate(-46.7899) scale(6.46347 8.91976)">
<stop stop-color="#D0C9EE"/>
<stop offset="1" stop-color="#D0C9EE" stop-opacity="0"/>
</radialGradient>
</defs>
</svg>

<svg width="32" height="32" fill="none" xmlns="http://www.w3.org/2000/svg"><path d="M12.26 17.644a4.04 4.04 0 1 0 0-8.08 4.04 4.04 0 0 0 0 8.08Z" fill="url(#a)"/><path d="M12.26 17.644a4.04 4.04 0 1 0 0-8.08 4.04 4.04 0 0 0 0 8.08Z" fill="url(#b)"/><g filter="url(#c)"><path d="M27.29 9.56c-3.557-3.467-9.248-3.407-12.715.15a8.966 8.966 0 0 0-2.02 3.208.268.268 0 0 1-.399.129 6.086 6.086 0 0 0-.988-.532A6.47 6.47 0 0 0 2 18.397c0 1.523.531 2.926 1.413 4.038A6.492 6.492 0 0 0 8.593 25h12.715a8.388 8.388 0 0 0 6.844-3.527c2.725-3.567 2.435-8.697-.862-11.914Z" fill="#D5D4DA"/><path d="M27.29 9.56c-3.557-3.467-9.248-3.407-12.715.15a8.966 8.966 0 0 0-2.02 3.208.268.268 0 0 1-.399.129 6.086 6.086 0 0 0-.988-.532A6.47 6.47 0 0 0 2 18.397c0 1.523.531 2.926 1.413 4.038A6.492 6.492 0 0 0 8.593 25h12.715a8.388 8.388 0 0 0 6.844-3.527c2.725-3.567 2.435-8.697-.862-11.914Z" fill="url(#d)"/></g><path d="M27.29 9.56c-3.557-3.467-9.248-3.407-12.715.15a8.966 8.966 0 0 0-2.02 3.208.268.268 0 0 1-.399.129 6.086 6.086 0 0 0-.988-.532A6.47 6.47 0 0 0 2 18.397c0 1.523.531 2.926 1.413 4.038A6.492 6.492 0 0 0 8.593 25h12.715a8.388 8.388 0 0 0 6.844-3.527c2.725-3.567 2.435-8.697-.862-11.914Z" fill="url(#e)"/><path d="M27.29 9.56c-3.557-3.467-9.248-3.407-12.715.15a8.966 8.966 0 0 0-2.02 3.208.268.268 0 0 1-.399.129 6.086 6.086 0 0 0-.988-.532A6.47 6.47 0 0 0 2 18.397c0 1.523.531 2.926 1.413 4.038A6.492 6.492 0 0 0 8.593 25h12.715a8.388 8.388 0 0 0 6.844-3.527c2.725-3.567 2.435-8.697-.862-11.914Z" fill="url(#f)"/><path d="M27.29 9.56c-3.557-3.467-9.248-3.407-12.715.15a8.966 8.966 0 0 0-2.02 3.208.268.268 0 0 1-.399.129 6.086 6.086 0 0 0-.988-.532A6.47 6.47 0 0 0 2 18.397c0 1.523.531 2.926 1.413 4.038A6.492 6.492 0 0 0 8.593 25h12.715a8.388 8.388 0 0 0 6.844-3.527c2.725-3.567 2.435-8.697-.862-11.914Z" fill="url(#g)"/><path d="M27.29 9.56c-3.557-3.467-9.248-3.407-12.715.15a8.966 8.966 0 0 0-2.02 3.208.268.268 0 0 1-.399.129 6.086 6.086 0 0 0-.988-.532A6.47 6.47 0 0 0 2 18.397c0 1.523.531 2.926 1.413 4.038A6.492 6.492 0 0 0 8.593 25h12.715a8.388 8.388 0 0 0 6.844-3.527c2.725-3.567 2.435-8.697-.862-11.914Z" fill="url(#h)"/><defs><radialGradient id="a" cx="0" cy="0" r="1" gradientUnits="userSpaceOnUse" gradientTransform="rotate(-172.463 7.257 5.601) scale(5.54446)"><stop offset=".309" stop-color="#E8E8E9"/><stop offset="1" stop-color="#D2D2D2"/></radialGradient><radialGradient id="b" cx="0" cy="0" r="1" gradientUnits="userSpaceOnUse" gradientTransform="matrix(-2.34711 -1.8843 1.72645 -2.1505 12.692 13.262)"><stop stop-color="#CDCDCE"/><stop offset="1" stop-color="#CDCDCE" stop-opacity="0"/></radialGradient><radialGradient id="e" cx="0" cy="0" r="1" gradientUnits="userSpaceOnUse" gradientTransform="rotate(136.5 10.583 11.787) scale(11.1541 11.965)"><stop offset=".179" stop-color="#FCFBFE"/><stop offset="1" stop-color="#FCFBFE" stop-opacity="0"/></radialGradient><radialGradient id="f" cx="0" cy="0" r="1" gradientUnits="userSpaceOnUse" gradientTransform="rotate(144.444 1.551 10.052) scale(6.84295 7.17037)"><stop stop-color="#FCFBFE"/><stop offset="1" stop-color="#FCFBFE" stop-opacity="0"/></radialGradient><radialGradient id="g" cx="0" cy="0" r="1" gradientUnits="userSpaceOnUse" gradientTransform="matrix(-23.2134 5.5071 -4.33701 -18.28129 25.213 15.466)"><stop offset=".815" stop-color="#CECCD7" stop-opacity="0"/><stop offset="1" stop-color="#CECCD7"/></radialGradient><radialGradient id="h" cx="0" cy="0" r="1" gradientUnits="userSpaceOnUse" gradientTransform="rotate(-46.79 32.892 6.486) scale(6.46347 8.91976)"><stop stop-color="#D0C9EE"/><stop offset="1" stop-color="#D0C9EE" stop-opacity="0"/></radialGradient><linearGradient id="d" x1="18.86" y1="24.032" x2="18.86" y2="16.519" gradientUnits="userSpaceOnUse"><stop stop-color="#DED7FA"/><stop offset="1" stop-color="#DED7FA" stop-opacity="0"/></linearGradient><filter id="c" x="2" y="6" width="28" height="19" filterUnits="userSpaceOnUse" color-interpolation-filters="sRGB"><feFlood flood-opacity="0" result="BackgroundImageFix"/><feBlend in="SourceGraphic" in2="BackgroundImageFix" result="shape"/><feColorMatrix in="SourceAlpha" values="0 0 0 0 0 0 0 0 0 0 0 0 0 0 0 0 0 0 127 0" result="hardAlpha"/><feOffset dy="-1"/><feGaussianBlur stdDeviation="1"/><feComposite in2="hardAlpha" operator="arithmetic" k2="-1" k3="1"/><feColorMatrix values="0 0 0 0 0.815686 0 0 0 0 0.784314 0 0 0 0 0.956863 0 0 0 1 0"/><feBlend in2="shape" result="effect1_innerShadow_18_14985"/></filter></defs></svg>
